X: 5
T: The Drunken Gauger
R: jig
M: 6/8
L: 1/8
K: Gmaj
|D|GAB cBA|BAG AGE|GBd g>ze|d(3Bcd edB|
cec (3BcdB|Az A BGE|DE/F/G AGA|BGG G2|
|D|GAB !trill!czA|BAG AGE|GBd g>ze|d(3Bcd edB|
cec (3BcdB|~A3 BGE|D>zG AGA|BGG G2|
|:D|GBd Jg>z e|dBe dBG|Ace ~a3|agb age|
dBd Jg>z e|dBe dBG|czA (3BcdB|AGA BGE|
DE/F/G/A/B/ ~c2A|BAG AGE|GBd g2e|dBe dBG|
!trill!c3 (3BcdB|AGA BGE|DE/F/G AGA|BGG G2:|


Tune 2180	Setting 15551

